resources/haticons/SVG/radio_button_on.svg

<!-- Generated by IcoMoon.io -->
<svg version="1.1" xmlns="http://www.w3.org/2000/svg" width="24" height="24" viewBox="0 0 24 24">
<title>radio_button_on</title>
<path d="M12 20.016q3.281 0 5.648-2.367t2.367-5.648-2.367-5.648-5.648-2.367-5.648 2.367-2.367 5.648 2.367 5.648 5.648 2.367zM12 2.016q4.125 0 7.055 2.93t2.93 7.055-2.93 7.055-7.055 2.93-7.055-2.93-2.93-7.055 2.93-7.055 7.055-2.93zM12 6.984q2.063 0 3.539 1.477t1.477 3.539-1.477 3.539-3.539 1.477-3.539-1.477-1.477-3.539 1.477-3.539 3.539-1.477z"></path>
</svg>

<svg xmlns="http://www.w3.org/2000/svg" width="24" height="24"><path d="M12 20.016q3.281 0 5.648-2.367t2.367-5.648-2.367-5.648T12 3.986 6.352 6.353t-2.367 5.648 2.367 5.648T12 20.016zm0-18q4.125 0 7.055 2.93t2.93 7.055-2.93 7.055T12 21.986t-7.055-2.93-2.93-7.055 2.93-7.055T12 2.016zm0 4.968q2.063 0 3.539 1.477T17.016 12t-1.477 3.539T12 17.016t-3.539-1.477T6.984 12t1.477-3.539T12 6.984z"/></svg>
